packages/kaspersky-hexa-ui-icons/src/iconsSVGs/48/Storage.svg

<svg width="48" height="48" viewBox="0 0 48 48" fill="none" xmlns="http://www.w3.org/2000/svg">
<path fill-rule="evenodd" clip-rule="evenodd" d="M36.0002 11H34.0002V9H36.0002V11ZM32.0002 9H30.0002V11H32.0002V9ZM34.0002 24H36.0002V22H34.0002V24ZM30.0002 24H32.0002V22H30.0002V24ZM42.0002 30H6.00023V2H42.0002V30ZM8.00023 4V15H40.0002V4H8.00023ZM40.0002 28V17H8.00023V28H40.0002ZM1.71023 43.29C1.61513 43.199 1.50298 43.1276 1.38023 43.08C1.13677 42.98 0.863694 42.98 0.620233 43.08C0.497481 43.1276 0.385336 43.199 0.290233 43.29C0.201902 43.3872 0.130874 43.4988 0.0802326 43.62C-0.0267442 43.862 -0.0267442 44.138 0.0802326 44.38C0.127827 44.5028 0.199192 44.6149 0.290233 44.71C0.387434 44.7983 0.499048 44.8694 0.620233 44.92C0.99263 45.0766 1.42267 44.9937 1.71023 44.71C1.79856 44.6128 1.86959 44.5012 1.92023 44.38C2.02721 44.138 2.02721 43.862 1.92023 43.62C1.86959 43.4988 1.79856 43.3872 1.71023 43.29ZM13.0002 43C12.4479 43 12.0002 43.4477 12.0002 44C12.0002 44.5523 12.4479 45 13.0002 45C13.5525 45 14.0002 44.5523 14.0002 44C14.0002 43.4477 13.5525 43 13.0002 43ZM17.0002 43C16.4479 43 16.0002 43.4477 16.0002 44C16.0002 44.5523 16.4479 45 17.0002 45C17.5525 45 18.0002 44.5523 18.0002 44C18.0002 43.4477 17.5525 43 17.0002 43ZM9.00023 43C8.44795 43 8.00023 43.4477 8.00023 44C8.00023 44.5523 8.44795 45 9.00023 45C9.55252 45 10.0002 44.5523 10.0002 44C10.0002 43.4477 9.55252 43 9.00023 43ZM5.00023 43C4.44795 43 4.00023 43.4477 4.00023 44C4.00023 44.5523 4.44795 45 5.00023 45C5.55252 45 6.00023 44.5523 6.00023 44C6.00023 43.4477 5.55252 43 5.00023 43ZM35.0002 43C34.4479 43 34.0002 43.4477 34.0002 44C34.0002 44.5523 34.4479 45 35.0002 45C35.5525 45 36.0002 44.5523 36.0002 44C36.0002 43.4477 35.5525 43 35.0002 43ZM43.0002 43C42.4479 43 42.0002 43.4477 42.0002 44C42.0002 44.5523 42.4479 45 43.0002 45C43.5525 45 44.0002 44.5523 44.0002 44C44.0002 43.4477 43.5525 43 43.0002 43ZM31.0002 43C30.4479 43 30.0002 43.4477 30.0002 44C30.0002 44.5523 30.4479 45 31.0002 45C31.5525 45 32.0002 44.5523 32.0002 44C32.0002 43.4477 31.5525 43 31.0002 43ZM39.0002 43C38.4479 43 38.0002 43.4477 38.0002 44C38.0002 44.5523 38.4479 45 39.0002 45C39.5525 45 40.0002 44.5523 40.0002 44C40.0002 43.4477 39.5525 43 39.0002 43ZM47.9202 43.62C47.8726 43.4972 47.8013 43.3851 47.7102 43.29C47.613 43.2017 47.5014 43.1306 47.3802 43.08C47.1972 43.0028 46.9952 42.9819 46.8002 43.02L46.6202 43.08C46.5565 43.1019 46.496 43.1322 46.4402 43.17L46.2902 43.29C46.1075 43.4816 46.0039 43.7352 46.0002 44C45.9986 44.13 46.0224 44.2591 46.0702 44.38C46.1246 44.5015 46.199 44.6131 46.2902 44.71C46.3874 44.7983 46.499 44.8694 46.6202 44.92C46.8623 45.027 47.1382 45.027 47.3802 44.92C47.6315 44.8291 47.8293 44.6312 47.9202 44.38C48.0272 44.138 48.0272 43.862 47.9202 43.62ZM24.0002 32C23.4479 32 23.0002 32.4477 23.0002 33C23.0002 33.5523 23.4479 34 24.0002 34C24.5525 34 25.0002 33.5523 25.0002 33C25.0002 32.4477 24.5525 32 24.0002 32ZM24.0002 36C23.4479 36 23.0002 36.4477 23.0002 37C23.0002 37.5523 23.4479 38 24.0002 38C24.5525 38 25.0002 37.5523 25.0002 37C25.0002 36.4477 24.5525 36 24.0002 36ZM28.0002 44C28.0057 44.0666 28.0057 44.1334 28.0002 44.2C28.0002 46.4091 26.2094 48.2 24.0002 48.2C21.7911 48.2 20.0002 46.4091 20.0002 44.2C19.9733 44.068 19.9733 43.932 20.0002 43.8C20.0555 41.5909 21.8911 39.8448 24.1002 39.9C26.3094 39.9552 28.0555 41.7909 28.0002 44ZM26.0002 44C26.0002 42.8954 25.1048 42 24.0002 42C22.8957 42 22.0002 42.8954 22.0002 44C22.0002 45.1046 22.8957 46 24.0002 46C25.1048 46 26.0002 45.1046 26.0002 44Z"  fill="currentColor"/>
</svg>

<svg xmlns="http://www.w3.org/2000/svg" width="48" height="48" fill="none" viewBox="0 0 48 48"><path fill="currentColor" fill-rule="evenodd" d="M36.0002 11h-2V9h2zm-4-2h-2v2h2zm2 15h2v-2h-2zm-4 0h2v-2h-2zm12 6h-36V2h36zm-34-26v11h32V4zm32 24V17h-32v11zm-38.29 15.29a1 1 0 0 0-.33-.21c-.2434-.1-.5165-.1-.76 0a1 1 0 0 0-.33.21 1.15 1.15 0 0 0-.21.33.94.94 0 0 0 0 .76 1 1 0 0 0 .21.33c.0972.0883.2088.1594.33.21a1 1 0 0 0 1.09-.21 1.15 1.15 0 0 0 .21-.33.94.94 0 0 0 0-.76 1.15 1.15 0 0 0-.21-.33m11.29-.29c-.5523 0-1 .4477-1 1s.4477 1 1 1 1-.4477 1-1-.4477-1-1-1m4 0c-.5523 0-1 .4477-1 1s.4477 1 1 1 1-.4477 1-1-.4477-1-1-1m-8 0c-.5522 0-1 .4477-1 1s.4478 1 1 1 1-.4477 1-1-.4477-1-1-1m-4 0c-.5523 0-1 .4477-1 1s.4477 1 1 1 1-.4477 1-1-.4477-1-1-1m30 0c-.5523 0-1 .4477-1 1s.4477 1 1 1 1-.4477 1-1-.4477-1-1-1m8 0c-.5523 0-1 .4477-1 1s.4477 1 1 1 1-.4477 1-1-.4477-1-1-1m-12 0c-.5523 0-1 .4477-1 1s.4477 1 1 1 1-.4477 1-1-.4477-1-1-1m8 0c-.5523 0-1 .4477-1 1s.4477 1 1 1 1-.4477 1-1-.4477-1-1-1m8.92.62a1 1 0 0 0-.21-.33 1.15 1.15 0 0 0-.33-.21 1 1 0 0 0-.58-.06l-.18.06a.76.76 0 0 0-.18.09l-.15.12a1.05 1.05 0 0 0-.29.71c-.0016.13.0222.2591.07.38.0544.1215.1288.2331.22.33.0972.0883.2088.1594.33.21.2421.107.518.107.76 0a.9.9 0 0 0 .54-.54.94.94 0 0 0 0-.76M24.0002 32c-.5523 0-1 .4477-1 1s.4477 1 1 1 1-.4477 1-1-.4477-1-1-1m0 4c-.5523 0-1 .4477-1 1s.4477 1 1 1 1-.4477 1-1-.4477-1-1-1m4 8a1.2 1.2 0 0 1 0 .2c0 2.2091-1.7908 4-4 4-2.2091 0-4-1.7909-4-4a1 1 0 0 1 0-.4c.0553-2.2091 1.8909-3.9552 4.1-3.9 2.2092.0552 3.9553 1.8909 3.9 4.1m-2 0c0-1.1046-.8954-2-2-2s-2 .8954-2 2 .8955 2 2 2 2-.8954 2-2" clip-rule="evenodd"/></svg>
